X: 14
T: No_112_Song_of_an_Ambitious_Mother.krn
%%abc-version 2.0
%%abcx-abcm2ps-target-version 5.9.1 (29 Sep 2008)
%%abc-creator hum2abc beta
%%abcx-conversion-date 2020/08/10 18:54:56
%%humdrum-veritas 3084394423
%%humdrum-veritas-data 2168280681
%%linebreak <none>
%%barnumbers 0
L: 1/4
M: 3/4
K: Eb clef=treble
[K:clef=treble][M:3/4]B,B,B, | 
EE2 | 
E>B,B, | 
EEE | 
FF2 | 
F2E | 
E2B | 
E2C | 
C3 | 
B,3- | 
B,B,B, | 
E2E | 
EEB, ||  
[M:2/4]EE ||  
[M:3/4]F2F | 
F2E ||  
[M:2/4]EE ||  
[M:3/4]B2E | 
C3 | 
B,3 |]  


